src/images/sprites/svg/port.svg

<svg width="38" height="38" viewBox="0 0 38 38" fill="none" xmlns="http://www.w3.org/2000/svg">
<path d="M35.4037 36.8949L2.5967 36.8949C1.77652 36.8949 1.10547 36.2239 1.10547 35.4037L1.10547 2.5967C1.10547 1.77652 1.77652 1.10547 2.5967 1.10547L35.4037 1.10547C36.2239 1.10547 36.8949 1.77652 36.8949 2.5967L36.8949 35.4037C36.8949 36.2239 36.2239 36.8949 35.4037 36.8949Z" stroke="black" stroke-miterlimit="10" stroke-linecap="round" stroke-linejoin="round"/>
<path d="M31.6303 26.3687L6.36719 26.3687L6.36719 16.0529L11.104 16.0529L11.8935 11.6318L26.104 11.6318L26.8935 16.0529L31.6303 16.0529L31.6303 26.3687Z" stroke="black" stroke-miterlimit="10" stroke-linecap="round" stroke-linejoin="round"/>
<path d="M12.1211 25.67L12.1211 21.1055" stroke="black" stroke-miterlimit="10" stroke-linecap="round" stroke-linejoin="round"/>
<path d="M25.8125 25.67L25.8125 21.1055" stroke="black" stroke-miterlimit="10" stroke-linecap="round" stroke-linejoin="round"/>
<path d="M21.25 25.67L21.25 21.1055" stroke="black" stroke-miterlimit="10" stroke-linecap="round" stroke-linejoin="round"/>
<path d="M16.6836 25.67L16.6836 21.1055" stroke="black" stroke-miterlimit="10" stroke-linecap="round" stroke-linejoin="round"/>
</svg>

<svg xmlns="http://www.w3.org/2000/svg" width="38" height="38" fill="none" viewBox="0 0 38 38">
	<path stroke="#000" stroke-linecap="round" stroke-linejoin="round" stroke-miterlimit="10" d="M35.404 36.895H2.597c-.82 0-1.492-.671-1.492-1.491V2.597c0-.82.672-1.492 1.492-1.492h32.807c.82 0 1.49.672 1.49 1.492v32.807c0 .82-.67 1.49-1.49 1.49z"/>
	<path stroke="#000" stroke-linecap="round" stroke-linejoin="round" stroke-miterlimit="10" d="M31.63 26.369H6.367V16.053h4.737l.79-4.421h14.21l.79 4.42h4.736V26.37zM12.121 25.67v-4.565M25.813 25.67v-4.565M21.25 25.67v-4.565M16.684 25.67v-4.565"/>
</svg>
